X: 4
T: A dreidele far alle
R: freylach
Z: John Chambers <jc:trillian.mit.edu> from handwritten MS.
D: Abe Schwartz Orchestra (March 1929)
M: 4/4
L: 1/8
K: G
"D7"D2 \
|: "G"G4 zA BG | "D7"A4 zB c^c | "D7"dc cB BA AG | "G"de (3=fed "D7"cB AB |
|  "G"G4 zA BG | "D7"A4 zB c^c | "D7"dc cB BA (3cBA |1 "G"G6 D2 :|2 "B7"FG ^AB (3BAG (3GFE
K: Edor^A
|: "Em"zE/F/ GA Bc (3dcB | {c}d8 | ed cB AG FE | {A}B8 \
|  "Em"zE/F/ GA Bc (3dcB | e8 | "F7"ed cB "B7"AG FE | E8 :|
|: "Em"ed cB AG FE | {A}B8 | ed cB AG FE | {F}G8 \
|  "Em"ed cB "E7"AG FE | "Am"A4 =c4  | "B7"(3ABc (3dcB (3AGA (3GFE | "Em"E8 :|
